X:1
T:No. 1
T:Sailor’s Song
T:Sailor’s Song
T:Edvard Grieg 
T:Op. 68, No. 1
T:Public Domain (PianoXML typeset)
T:Public Domain (PianoXML typeset)
C:Edvard Grieg
Z:Public Domain (PianoXML typeset)
%%score { ( 1 3 ) | ( 2 4 ) }
L:1/8
Q:1/4=120
M:2/2
K:C
V:1 treble nm="Grand Piano"
V:3 treble 
V:2 bass 
V:4 bass 
V:1
"^Allegro  vivace e marcato"!f! !>![EG]4 !>![EA]4 | !>![CEG]4- [CEG]2 .[CFc]2 | %2
 .[CFB]2 .[CFA]2 .[G,CG]2 FE | .[G,B,D]2 .[G,A,C]2 !>![G,B,D]4 |!ff! !>![GB]4 !>![Gc]4 | %5
 !>![E-G-B]4 [EGB]2 [EGc]2 | .[D^FB]2 .[DFA]2 .[DGd]2 cB | .[D^FA]2 .[B,DG]2 !>![B,DG]4 | %8
!f! !>![EG]4 !>![EA]4 | !>![CEG]4- [CEG]2 .[CFc]2 | .[CFB]2 .[CFA]2 .[G,CG]2 FE | %11
 .[G,B,D]2 .[G,A,C]2 !>![G,B,D]4 |!ff! !>![GB]4 !>![Gc]4 | !>![E-G-B]4 [EGB]2 [EGc]2 | %14
 .[D^FB]2 .[DFA]2 .[DGd]2 cB | .[D^FA]2 .[B,DG]2 !>![B,DG]4 |!p! ([B,D]4 [CF]4 | [B,D]8) | %18
 ([B,D][A,C][G,B,][A,C] .[B,D]2) .[B,D]2 | (!tenuto![CF]4 [B,D]2) z2 |!mp! ([CF]4 [EA]4 | %21
 [A,CF]8) | (FEDE .F2) .F2 | (!tenuto![CEA]4 [EAc]2) z2 |!mf! ([DGB]4 [FAd]4 | [DGB]8) | %26
 .[DGB]2 .[DGB]2 .[FAd]2 .[FAd]2 | [DGB]8 |"_cresc." .[DGB]2 .[DGB]2 .[FAd]2 .[FAd]2 | %29
 .[DGB]2 .[DGB]2 .[FAd]2 .[FAd]2 | .[DGB]2 .[FAd]2 .[DGB]2 .[FAd]2 | %31
"_poco rit." .[DGB]2 .[FAd]2 .[DGB]2 .[FAd]2 |"^a tempo" [G,CEG]4 [A,CEA]4 | %33
 [G,CEG]4- [G,CEG]2 .[CEc]2 |"_poco a  poco rit." .[B,B]2 .[A,A]2 .[G,CEG]2[K:bass] [F,F][E,E] | %35
 .[D,G,B,D]2 .[C,C]2 !>!!fermata![E,G,C]4 |!p! ([B,D]4 [CF]4 | [B,D]8) | %38
 ([B,D][A,C][G,B,][A,C] .[B,D]2) .[B,D]2 | (!tenuto![CF]4 [B,D]2) z2 |!mp! ([CF]4 [EA]4 | %41
 [A,CF]8) | (FEDE .F2) .F2 | (!tenuto![CEA]4 [EAc]2) z2 | ([DGB]4 [FAd]4 | [DGB]8) | %46
 .[DGB]2 .[DGB]2 .[FAd]2 .[FAd]2 | [DGB]8 |"_cresc." .[DGB]2 .[DGB]2 .[FAd]2 .[FAd]2 | %49
 .[DGB]2 .[DGB]2 .[FAd]2 .[FAd]2 | .[DGB]2 .[FAd]2 .[DGB]2 .[FAd]2 | %51
"_poco rit." .[DGB]2 .[FAd]2 .[DGB]2 .[FAd]2 |"^a tempo" !>![G,CEG]4 !>![A,CEA]4 | %53
 !>![G,CEG]4- [G,CEG]2 !>![CEc]2 | %54
"_poco a  poco rit." !>![B,B]2 !>![A,A]2 !>![G,CEG]2[K:bass] [F,F][E,E] | %55
 .[D,G,B,D]2 .[C,C]2 !>!!fermata![E,G,C]4 |] %56
V:2
 !>!C4 !>![A,C]4 | z2 .[G,,G,]2 .[C,C]2 .[A,,A,]2 | .[G,,G,]2 .[F,,F,]2 .[E,,E,]2 .[F,,F,]2 | %3
 .[G,,G,]2 [D,,D,]4 .[G,,,G,,]2 | !>!E4 !>![CE]4 | z2 .[B,,B,]2 .[E,E]2 .[A,,A,]2 | %6
 .[D,D]2 .[C,C]2 .[B,,B,]2 .[C,C]2 | .[D,D]2 .[G,,G,]2 .[D,,D,]2 .[G,,,G,,]2 | !>!C4 !>![A,C]4 | %9
 z2 .[G,,G,]2 .[C,C]2 .[A,,A,]2 | .[G,,G,]2 .[F,,F,]2 .[E,,E,]2 .[F,,F,]2 | %11
 .[G,,G,]2 [D,,D,]4 .[G,,,G,,]2 | !>!E4 !>![CE]4 | z2 .[B,,B,]2 .[E,E]2 .[A,,A,]2 | %14
 .[D,D]2 .[C,C]2 .[B,,B,]2 .[C,C]2 | .[D,D]2 .[G,,G,]2 .[D,,D,]2 .[G,,,G,,]2 | (G,4 [D,A,]4) | %17
 z2 .D,2 .G,2 .G,,2 | G,4- .G,2 .G,2 | (!tenuto![D,A,]4 G,2) z2 | ([D,A,]4 [F,C]4) | %21
 z2 .D,2 .G,2 .G,,2 | A,4 A,2 A,2 | (!tenuto!F,4 ^F,2) z2 | (G,4 D4) | z2 .D,2 .G,2 .G,,2 | %26
 z2 .G,2 .D2 .D,2 | z2 .D,2 .G,2 .G,,2 | z2 .G,2 .D2 .D,2 | z2 .G,2 .D2 .D,2 | z2 .G,2 z2 .G,2 | %31
 .D,2 .[G,,G,]2 .[D,,D,]2 .[G,,,G,,]2 |!ff! .[C,,C,]2 .[D,,D,]2 .[E,,E,]2 .[D,,D,]2 | %33
 .[C,,C,]2 .[B,,,B,,]2 .[A,,,A,,]2 .[G,,,G,,]2 | %34
 .[^F,,,^F,,]2 .[=F,,,=F,,]2 .[E,,,E,,]2 .[F,,,F,,]2 | %35
 .[G,,,G,,]2!ped! .[C,,,C,,]2 !>!!fermata![C,,G,,C,]4!ped-up! | (G,4 [D,A,]4) | %37
 z2 .D,2 .G,2 .G,,2 | G,4- .G,2 .G,2 | (!tenuto![D,A,]4 G,2) z2 | ([D,A,]4 [F,C]4) | %41
 z2 .D,2 .G,2 .G,,2 | A,4 A,2 A,2 | (!tenuto!F,4 ^F,2) z2 |!mf! (G,4 D4) | z2 .D,2 .G,2 .G,,2 | %46
 z2 .G,2 .D2 .D,2 | z2 .D,2 .G,2 .G,,2 | z2 .G,2 .D2 .D,2 | z2 .G,2 .D2 .D,2 | z2 .G,2 z2 .G,2 | %51
 .D,2 .[G,,G,]2 .[D,,D,]2 .[G,,,G,,]2 |!ff! !>![C,,C,]2 !>![D,,D,]2 !>![E,,E,]2 !>![D,,D,]2 | %53
 !>![C,,C,]2 !>![B,,,B,,]2 !>![A,,,A,,]2 !>![G,,,G,,]2 | %54
 !>![^F,,,^F,,]2 !>![=F,,,=F,,]2 !>![E,,,E,,]2 !>![F,,,F,,]2 | %55
 !>![G,,,G,,]2!ped! !>![C,,,C,,]2 !>!!fermata![C,,G,,C,]4!ped-up! |] %56
V:3
 x8 | x8 | x6 [A,C]2 | x8 | x8 | x8 | x6 [EG]2 | x8 | x8 | x8 | x6 [A,C]2 | x8 | x8 | x8 | %14
 x6 [EG]2 | x8 | x8 | x8 | x8 | x8 | x8 | x8 | C4 C2 C2 | x8 | x8 | x8 | x8 | x8 | x8 | x8 | x8 | %31
 x8 | x8 | x8 | ^D4 x2[K:bass] [A,C]2 | x8 | x8 | x8 | x8 | x8 | x8 | x8 | C4 C2 C2 | x8 | x8 | %45
 x8 | x8 | x8 | x8 | x8 | x8 | x8 | x8 | x8 | ^D4 x2[K:bass] [A,C]2 | x8 |] %56
V:4
 x8 | x8 | x8 | x8 | x8 | x8 | x8 | x8 | x8 | x8 | x8 | x8 | x8 | x8 | x8 | x8 | x8 | x8 | x8 | %19
 x8 | x8 | x8 | (D,E,F,E, .D,2) .D,2 | x8 | x8 | x8 | x8 | x8 | x8 | x8 | x8 | x8 | x8 | x8 | x8 | %35
 x8 | x8 | x8 | x8 | x8 | x8 | x8 | (D,E,F,E, .D,2) .D,2 | x8 | x8 | x8 | x8 | x8 | x8 | x8 | x8 | %51
 x8 | x8 | x8 | x8 | x8 |] %56

